X:48
T:Lou pichin ome
C:Trad. comté Nice
C:Transcription J.-G. Maurandi
Z:Transcrit et/ou corrigé par Michel BELLON - 2007-01-30
Z:Pour toute observation mailto:galouvielle@free.fr
M:6/8
Q:3/8=112
K:Bb
%%continueall 1
(F2F | d2d c2c | B3) (BAB | c2c cBc |
w:Ai un o-me qu'es pi-chin, pouo-di bèn di-re, pouo-di bèn
d2!breath!B) (F2F | d2d c2c | B3) (BAB | c2e d2c | HB3) (d2d |
w:di-re, ai un o-me qu'es pi-chin, pouo-di ben di-re qu'es ma-lin~! D'un pan
d2c c2B | B2B) (d2d | d2c c2B |  B2!breath!B) (F2F |
w:et d'mi d'é-car-la-te, Je lui fais l'man-teau, la ca-pe. J'en re-
B2B d2d | f3) (eee |  d2d c2c | B3) |]
w:ti-re~un p'tit mor-ceau Pour lui fai-re le ca-pu-chon.
W:
W:Refrin
W:Ai un ome qu'es pichin,
W:pouodi bèn dire, pouodi bèn dire,
W:ai un ome qu'es pichin,
W:pouodi ben dire qu'es malin !
W:
W:D'un pan et d'mi d'écarlate,
W:Je lui fais l'manteau, la cape.
W:J'en retire un p'tit morceau
W:Pour lui faire le capuchon.
W:
W:D'une tête de sardine,
W:Il(e) soupe puis il dîne.
W:Il en garde un p'tit morceau
W:Pour s'en faire un souper.
W:
W:Quand il s'en va à la chasse,
W:A cheval sur une limace.
W:Quand il s'en va au festin,
W:A cheval sur un lapin.
W:
W:Le lapin s'met à courir,
W:Le petit homme s'affale.
W:Le lapin a trop couru,
W:Le petit homme s'est perdu.
W:
W:Allez dire à la voisine
W:Que les poules soient enfermées,
W:Car mon homme est sorti,
W:Qu'elles n'aillent pas le picorer.
W:
W:Avec une aiguille usée
W:Il se fait sabre et épée.
W:Il en reste encore assez
W:Pour se faire un coutelet.
W:
W:Avec une coque de noisette
W:Il se fait une cabane.
W:Il en reste encore assez
W:Pour se faire la cheminée.
W:
W:Avec un pan de toile grise
W:Il se fait douze chemises.
W:Il en reste encore assez
W:Pour se faire un pantalon.
W:
%%newpage

%%footer $D   Galouvielle-MBe 2007 \nMarin congo (France)
